X: 23
T: Florida Blues
M:2/4
L:1/8
S: Viola "Mom" Ruth - Pioneer Western Folk Tunes (1948)
Z:AK/Fiddler's Companion
K:D
{^e=f}^f/a/f/e/ d/B/A/d/|{e=f}^f/a/f/e/ d/B/A|F/F/E/F/ D/B,/A,/D/|
GA/B/ d/e/d/B/|G/A/B/d/ e/d/B/G/|DE/F/ A/G/F/E/|D/E/F/A/ B/G/A/F/|
E/c/c/B/ c<a e/e/|c/B/A/B/ c<e|ae/f/ d/B/A/B/|d3||([d/f/]e/)|[Fd][Fd] [F/d/]B/A/F/|
D>E D([d/f/]e/)|[Fd][Fd] [F/d/]B/A/F/|D2 E/D/E/F/|G/AB/ d/e/d/B/|
G/A/B/d/ e/d/B/G/|D/EF/ A/G/F/E/|D/E/F/A/ B/G/A/F/|E/c/B/c/ d<c|
c/B/A/B/ c<[ce]|[ca](e/f/) d/B/A/B/|[F4d4]||

%%sep 1 1 500
